X:1
T:Sound the High Praises
T:Sound the High Praises
T:James McGranahan
T:John Charles Ryle, 1878
T:Public Domain Courtesy of the Cyber Hymnal™
T:Public Domain Courtesy of the Cyber Hymnal™
C:James McGranahan
Z:Public Domain
Z:Courtesy of the Cyber Hymnal™
%%score ( 1 2 ) ( 3 4 )
L:1/8
Q:1/4=115
M:6/4
K:Eb
V:1 treble 
V:2 treble 
V:3 bass 
V:4 bass 
V:1
 B3 [=Ac] [_Ad]2 [Ge]2 [GB]2 [EG]2 | [DF]2 [EG]2 [FA]2 (c2 B2) [EG]2 | %2
w: 1.~Sound the high prais- es of|Je- sus our king, * He|
w: 2.~Praise to the con- quer- or!|Praise to the Lord, * The|
 [DB]3 [Ec] [Fd]2 [Ee]2 [EB]2 [EG]2 | [DF]2 [Fd]2 [Ec]2 ([DB]4 [DB]2) | %4
w: came and He con- quered, His|vic- to- ry sing; *|
w: en- e- my quailed at the|might of His Word;~In *|
 [FA]3 [EG] [FA]2 [DF]2 [EG]2 [FA]2 | [Ac]2 [GB]2 [^F=A]2 [GB]2 [EG]2 [GB]2 | %6
w: Sing, for the pow’r of the|ty- rant is bro- ken, The|
w: Heav’n He as- cends and un-|folds the glad sto- ry, The|
 [FA]3 [EG] [FA]2 [DF]2 [EG]2 [FA]2 | [Ac]2 [GB]2 [^F=A]2 ([GB]4 [GB]2) | %8
w: tri- umph’s com- plete o- ver|death and the grave; *|
w: hosts of the bless- èd ex-|ult in His fame:~In *|
 [Ge]3 [Ge] [Ge]2 [Gd]2 [Gd]2 [Gd]2 | [Ec]2 [Ec]2 [Ec]2 [EB]2 [EG]2 [EB]2 | %10
w: Vain is their boast- ing, Je-|ho- vah has spo- ken, And|
w: love He looks down from the|throne of His glo- ry, And|
 [Fd]3 [Fd] [Fd]2 [Ge]2 [Bd]2 [Ac]2 | [GB]2 [Ge]2 [Ad]2 [Ge]6 || %12
w: Je- sus pro- claimed Him- self|might- y to save.|
w: res- cues the ru- ined who|trust in His name.|
"^Refrain" B3 [=Ac] [_Ad]2 [Ge]2 [GB]2 [EG]2 | [DF]2 [EG]2 [FA]2 (c2 B2) [EG]2 | %14
w: Sound the high prais- es of|Je- sus our king, * He|
w: ||
 [DB]3 [Ec] [Fd]2 [Ee]2 [GB]2 [Ge]2 | [Af]2 [Ae]2 [Ad]2 [Ge]6 |] %16
w: came and He con- quered, His|vic- to- ry sing.|
w: ||
V:2
 B3 x9 | x6 E4 x2 | x12 | x12 | x12 | x12 | x12 | x12 | x12 | x12 | x12 | x12 || B3 x9 | x6 E4 x2 | %14
 x12 | x12 |] %16
V:3
 B,3 B, B,2 [E,B,]2 [E,E]2 [E,B,]2 | [B,,B,]2 [B,,B,]2 [B,,B,]2 A,2 G,2 [E,B,]2 | %2
 [B,,B,]3 [B,,=A,] [B,,_A,]2 [E,G,]2 [E,G,]2 [E,B,]2 | [F,B,]2 [F,B,]2 F,2 ([B,,F,]4 [B,,F,]2) | %4
 [B,,B,]3 [B,,B,] [B,,B,]2 [B,,B,]2 [B,,B,]2 [B,,D]2 | %5
 [E,C]2 [E,C]2 [E,C]2 [E,C]2 [E,B,]2 [E,B,]2 | %6
 [B,,B,]3 [B,,B,] [B,,B,]2 [B,,B,]2 [B,,B,]2 [B,,D]2 | [E,E]2 [E,E]2 [E,E]2 ([E,E]4 [E,E]2) | %8
 C3 C C2 [G,=B,]2 [G,B,]2 [G,B,]2 | [A,C]2 A,2 A,2 [E,G,]2 [E,B,]2 [E,G,]2 | %10
 [B,,B,]3 [B,,B,] [B,,B,]2 [E,B,]2 [G,B,]2 [A,E]2 | [B,E]2 B,2 [B,,B,]2 [E,B,]6 || %12
 B,3 B, B,2 [E,B,]2 [E,E]2 [E,B,]2 | [B,,B,]2 [B,,B,]2 [B,,B,]2 A,2 G,2 [E,B,]2 | %14
 [B,,B,]3 [B,,=A,] [B,,_A,]2 [E,G,]2 [E,E]2 [CE]2 | [A,C]2 [A,C]2 B,2 [E,B,]6 |] %16
V:4
 B,3 B, B,2 x6 | x6 E,4 x2 | x12 | x4 F,2 x6 | x12 | x12 | x12 | x12 | C3 C C2 x6 | x2 A,2 A,2 x6 | %10
 x12 | x2 B,2 x8 || B,3 B, B,2 x6 | x6 E,4 x2 | x12 | x4 B,2 x6 |] %16

